icons/a4-landscape-24.svg

<?xml version="1.0" encoding="UTF-8"?><svg id="icons" xmlns="http://www.w3.org/2000/svg" viewBox="0 0 24 24"><defs><style>.cls-1{fill:none;}.cls-1,.cls-2,.cls-3{stroke-width:0px;}.cls-2{opacity:.25;}</style></defs><rect class="cls-1" width="24" height="24"/><path class="cls-2" d="M16,7H1v-3h15v3Z"/><path class="cls-3" d="M17.29102,3H0v14h1V4h15v6h6v10h-2v1h3v-12.28998l-5.70898-5.71002ZM22,9h-5v-5h.20001l4.79999,4.79999v.20001ZM16,22h-1v-2h-4.9541l5.9541-8.60059v7.60059h2v1h-2v2ZM11.9541,19h3.0459v-4.39941l-3.0459,4.39941ZM5.31854,13h-1L.26855,22h.99078l1.37775-3h4.36292l1.37775,3h.99078l-4.04999-9ZM3.09637,18l1.72217-3.75,1.72217,3.75h-3.44434Z"/></svg>

<svg xmlns="http://www.w3.org/2000/svg" viewBox="0 0 24 24"><path stroke-width="0" fill="none" d="M0 0h24v24H0z"/><path d="M16 7H1V4h15v3z" opacity=".25" stroke-width="0"/><path d="M17.291 3H0v14h1V4h15v6h6v10h-2v1h3V8.71L17.291 3zM22 9h-5V4h.2L22 8.8V9zm-6 13h-1v-2h-4.954L16 11.4V19h2v1h-2v2zm-4.046-3H15v-4.4L11.954 19zM5.32 13h-1L.27 22h.99l1.378-3H7l1.378 3h.99l-4.05-9zm-2.223 5l1.723-3.75L6.54 18H3.096z" stroke-width="0"/></svg>
